img/tel.svg

<svg width="16" height="16" viewBox="0 0 16 16" fill="none" xmlns="http://www.w3.org/2000/svg">
<path d="M15.9924 12.6189C16.0263 12.8786 15.9471 13.1045 15.7552 13.2964L13.5025 15.5321C13.4008 15.6451 13.2682 15.7411 13.1045 15.8201C12.9407 15.8992 12.7798 15.95 12.6218 15.9725C12.6105 15.9725 12.5766 15.9754 12.5201 15.9811C12.4637 15.9867 12.3903 15.9896 12.3 15.9896C12.0853 15.9896 11.7381 15.9529 11.2582 15.8795C10.7783 15.806 10.1911 15.6253 9.4967 15.3374C8.80213 15.0495 8.01454 14.6175 7.13378 14.0417C6.25303 13.4659 5.31576 12.6754 4.32206 11.6703C3.53162 10.8912 2.87668 10.1459 2.35724 9.43454C1.83781 8.72311 1.42 8.06535 1.10383 7.46122C0.787621 6.8571 0.550488 6.30943 0.392399 5.81823C0.23431 5.32703 0.127036 4.90357 0.0705753 4.54787C0.0141151 4.19217 -0.00846904 3.9127 0.00282301 3.70944C0.0141151 3.50618 0.0197611 3.39326 0.0197611 3.37068C0.0423452 3.21259 0.0931595 3.05168 0.172204 2.88794C0.251248 2.72421 0.347231 2.59153 0.460151 2.4899L2.71292 0.237133C2.87101 0.0790444 3.05168 0 3.25493 0C3.40173 0 3.53159 0.0423452 3.64451 0.127036C3.75743 0.211726 3.85341 0.316178 3.93246 0.44039L5.74483 3.87882C5.84646 4.05949 5.87469 4.2571 5.82952 4.47165C5.78436 4.6862 5.68837 4.86688 5.54158 5.01367L4.71161 5.84364C4.68903 5.86622 4.66926 5.90292 4.65233 5.95374C4.63539 6.00455 4.62692 6.04689 4.62692 6.08077C4.67209 6.3179 4.77372 6.58891 4.93181 6.8938C5.06731 7.16481 5.27621 7.4951 5.55851 7.88468C5.84082 8.27425 6.24168 8.72308 6.76112 9.23123C7.26926 9.75072 7.72094 10.1544 8.11616 10.4424C8.5113 10.7302 8.84171 10.942 9.10707 11.0775C9.37243 11.213 9.57569 11.2949 9.71681 11.323L9.92848 11.3654C9.95107 11.3654 9.98785 11.3569 10.0386 11.34C10.0894 11.323 10.1261 11.3033 10.1487 11.2807L11.1142 10.2983C11.3175 10.1176 11.5546 10.0273 11.8256 10.0273C12.0176 10.0273 12.17 10.0611 12.2829 10.1289H12.2998L15.5688 12.0599C15.8061 12.2068 15.9472 12.393 15.9924 12.6189Z" fill="#FCDB50"/>
</svg>

<svg width="16" height="16" fill="none" xmlns="http://www.w3.org/2000/svg"><path d="M15.992 12.619a.773.773 0 01-.237.677l-2.253 2.236a1.268 1.268 0 01-.398.288 1.59 1.59 0 01-.482.152 2.313 2.313 0 01-.322.017c-.215 0-.562-.036-1.042-.11-.48-.073-1.067-.254-1.761-.542-.695-.287-1.482-.72-2.363-1.295-.881-.576-1.818-1.367-2.812-2.372-.79-.779-1.445-1.524-1.965-2.235A15.93 15.93 0 011.104 7.46a10.628 10.628 0 01-.712-1.643 8.717 8.717 0 01-.321-1.27 4.195 4.195 0 01-.068-.839c.011-.203.017-.316.017-.338.022-.158.073-.32.152-.483A1.27 1.27 0 01.46 2.49L2.713.237A.746.746 0 013.255 0a.63.63 0 01.39.127c.112.085.208.19.287.313l1.813 3.44c.101.18.13.378.085.593a1.056 1.056 0 01-.288.542l-.83.83a.282.282 0 00-.06.11.418.418 0 00-.025.127c.045.237.147.508.305.813.135.27.344.601.627.99.282.39.683.84 1.202 1.347.508.52.96.923 1.355 1.211.395.288.726.5.991.636.265.135.469.217.61.245l.211.042c.023 0 .06-.008.11-.025a.283.283 0 00.11-.06l.966-.982c.204-.18.44-.27.712-.27.192 0 .344.033.457.1h.017l3.269 1.932c.237.147.378.333.423.559z" fill="#FCDB50"/></svg>
